X:34
T:J'ai descendu dans mon jardin
R:Pastourelle
S:Madame Messager
A:Normandie
O:France
Z:transcrit par Jean Marc Henry
M:6/8
L:1/8
K:F
AFA|c2 c c2 c| c z f e2 d| c3 d3| c2 z ccc| f2 c c2 B| A3 AAA|!
A2B  c2 B|A2 F "," AFA | c3 d3| c3 ccd| c2 B A2G| F3||
